!!!COM: Bach, Johann Sebastian
!!!CDT: 1685/3//-1750/7/28/
!!!OTL@@DE: Der Tag, der ist so freudenreich
!!!OTL@EN: This day is so joyful
!!!AGN: 4-Part Chorale
!!!SCT: BH 158
!!!SCT: BWV 294
**harm	**root	**kern	**kern	**kern	**kern
!	!	!bass	!tenor	!alto	!soprno
*	*Iorgan	*Iorgan	*Iorgan	*Iorgan	*Iorgan
*k[f#c#g#]	*k[f#c#g#]	*k[f#c#g#]	*k[f#c#g#]	*k[f#c#g#]	*k[f#c#g#]
*A:	*A:	*A:	*A:	*A:	*A:
*M4/4	*M4/4	*M4/4	*M4/4	*M4/4	*M4/4
*met(c)	*met(c)	*met(c)	*met(c)	*met(c)	*met(c)
*MM60	*MM60	*MM60	*MM60	*MM60	*MM60
*>[A,A,B]	*>[A,A,B]	*>[A,A,B]	*>[A,A,B]	*>[A,A,B]	*>[A,A,B]
*>A	*>A	*>A	*>A	*>A	*>A
I	4GG	8A	4c#	4e	4a
.	.	8G#	.	.	.
=1	=1	=1	=1	=1	=1
vi	4EE	8F#	4c#	4f#	4a
.	.	8E	.	.	.
IV	4CC	8D	4d	4.f#	4a
.	.	8C#	.	.	.
ii	4AA	4BB	4d	.	4b
.	.	.	.	8g#	.
V7/IV	4GG	4AA	8e	4a	4cc#
.	.	.	8g	.	.
=2	=2	=2	=2	=2	=2
IV	4CC	4D	4f#	4.a	8dd
.	.	.	.	.	8cc#
V	4DD	4E	8B	.	4b
.	.	.	16e	8g#	.
.	.	.	16d	.	.
I;	2GG;	2AA;	2c#;	2e;	2a;
=3	=3	=3	=3	=3	=3
V	4DD	4E	4e	4g#	4b
ii	8AA	8BB	8d	8f#	4b
vii7/IV	8BB	8C#	[8c#	8e	.
ii	4AA	4D	8c#]	[4f#	4f#
.	.	.	[8B	.	.
V	4DD	4E	8B]	8f#]	4g#
.	.	.	16c#	16e	.
.	.	.	16B	16d	.
=4	=4	=4	=4	=4	=4
vi	4EE	4F#	4.A	8c#	4a
.	.	.	.	8A	.
V	4DD	4E	.	4e	4b
.	.	.	8G#	.	.
I;	4GG;	4AA;	4c#;	4e;	4a;
=:|!	=:|!	=:|!	=:|!	=:|!	=:|!
*>B	*>B	*>B	*>B	*>B	*>B
I	4GG	4A	4c#	4e	4a
=5	=5	=5	=5	=5	=5
V7b	4DD	4G#	8B	4e	4ee
.	.	.	8d	.	.
I	8GG	8A	8c#	8a	4ee
Vb	8DD	8G#	8B	8b	.
vi	4EE	4F#	4A	8cc#	4ff#
.	.	.	.	8dd	.
Vb	4DD	4G#	4e	8cc#	8ee
.	.	.	.	8b	8dd
!!linebreak: 3
=6	=6	=6	=6	=6	=6
I	4GG	8A	4e	4a	4cc#
.	.	8G#	.	.	.
viib/V	4CC#	4F#	4f#	4a	4dd#
V;	4DD;	4E;	4g#;	4b;	4ee;
Vb	4DD	4G#	8e	4b	4ee
.	.	.	8d	.	.
=7	=7	=7	=7	=7	=7
I	4GG	8A	8c#	4a	4ee
.	.	8B	8d	.	.
Ib	4GG	8c#	8e	4a	4ee
.	.	8A	8c#	.	.
IV	4CC	4d	8d	4a	4ff#
.	.	.	8c#	.	.
Vb	4DD	4G#	8B	[4b	8ee
.	.	.	8e	.	8dd
=8	=8	=8	=8	=8	=8
I	4GG	4A	4e	8b]	4cc#
.	.	.	.	4a	.
V	4DD	4E	8.e	.	4b
.	.	.	.	8g#	.
.	.	.	16d	.	.
I;	2GG;	2AA;	2c#;	2e;	2a;
=9	=9	=9	=9	=9	=9
IV	4CC	8D	4A	4d	4f#
.	.	8C#	.	.	.
viib	4FF#	4BB	4B	4d	4g#
Ib	4GG	4C#	8E	8e	4a
.	.	.	4A	4c#	.
vii7/V	8CC#	4D#	.	.	4f#
Vb/V	8AA	.	16G#	8B	.
.	.	.	16F#	.	.
=10	=10	=10	=10	=10	=10
V	4DD	4E	4G#	8B	4e
.	.	.	.	8c#	.
V7/V	4AA	4BB	8F#	4B	4d#
.	.	.	16G#	.	.
.	.	.	16A	.	.
V;	2DD;	2EE;	2G#;	2B;	2e;
!!linebreak: 3
=11	=11	=11	=11	=11	=11
vi	4EE	8F#	4c#	4f#	4a
.	.	8E	.	.	.
IV	4CC	8D	4d	4f#	4a
.	.	8C#	.	.	.
ii	8AA	4BB	4d	8f#	4b
viib	8FF#	.	.	8g#	.
V7/IV	4GG	4AA	8e	4a	4cc#
.	.	.	8g	.	.
=12	=12	=12	=12	=12	=12
IV	4CC	4D	4f#	4.a	8dd
.	.	.	.	.	8cc#
V	4DD	4E	8B	.	4b
.	.	.	16e	8g#	.
.	.	.	16d	.	.
I;	2GG;	2AA;	2c#;	2e;	2a;
=13	=13	=13	=13	=13	=13
V	4DD	8EE	8G#	4e	4b
.	.	8FF#	8A	.	.
Vb	4DD	8GG#	4B	4e	4b
.	.	8AA	.	.	.
V/V	4AA	8BB	4B	4d#	4f#
.	.	8AA	.	.	.
Vb	4DD	4GG#	4B	4e	4g#
=14	=14	=14	=14	=14	=14
vi7b	4EE	4FF#	4c#	4e	8a
.	.	.	.	.	8g#
V/V	4AA	4BB	8F#	4d#	4f#
.	.	.	16B	.	.
.	.	.	16A	.	.
V;	4DD;	4E;	4G#;	4B;	4e;
V7b/IV	4GG	4C#	4A	4e	4g
=15	=15	=15	=15	=15	=15
IV	4CC	4.D	4A	4d	4f#
IV	4CC	.	4F#	4A	4d
.	.	8C#	.	.	.
ii	4AA	4BB	4B	4d	4f#
V	4DD	8E	4B	4e	4g#y
.	.	8D	.	.	.
=16	=16	=16	=16	=16	=16
Ib	4GG	8C#	4A	4.e	4a
.	.	8AA	.	.	.
V	4DD	4E	4G#	.	4b
.	.	.	.	8d	.
I;	4GG;	4AA;	4A;	4c#;	4a;
==	==	==	==	==	==
*-	*-	*-	*-	*-	*-
!!!YOR: Ludwig Erk, Peters Editions of 1850, 1865; revised in light of
!!!YOR: Friedrich Smend, Peters Edition of 1932 & Albert Riemenschneider, 1941.
!!!RDT: 1987 September
!!!YER: 1995 March 1
!!chor2scor: -l 3 -s 0.6 -o %b.pmx
!!!ONB1: Text by Georg Niege; 16th Century secular melody, first appears 
!!!ONB2: in sacred use in Neu Catechismus-Gesangbüchlein, Hamburg, 1598. 
!!!YEC: Copyright 1994, David Huron
!!!YEN: United States of America
!!!SMA: 371 Bach Chorales, edited by Ludwig Erk, C.F. Peters
!!!PDT: 1850, 1865
